X: 15662
T: Gold In Every Pocket But Mine Own
R: hornpipe
M: 4/4
K: Dmajor
|:(3(ABc)|d2d2 BcdB|TA2F2 D3E|F2FF EDE2|FA2F A2 (3(ABc)|
d2d2 BcdB|TA2F2 D3E|F2FF EDEF|D2D2 D2:|
|:z F|FED2 EFGE|AFD2 D3E|FED2 EFED|B,CA,2 A,3F|
FED2 EFGE|AFD2 D3E|FED2 EDCE|D2D2 D2:|

